X:2244
T:Girls of Balladoole
O:england
R:Triple Hornpipe
M:3/2
A:Isle of Man
K:D
L:1/4
fd dA d2|fd df e/f/g/e/|\
fd dA de/f/|g>f ed ce:|
D>D FA d2|A>B AG FE|D>D FA df|e>f ed cA:|


